X: 500
T: THE BOLD DRAGON
B: O'Neill's 500
Z: 1999 by John Chambers <jc@trillian.mit.edu>
N: "Spirited"
N: Collected by "F.O'Neill"
M: C
L: 1/8
K:D
A>A \
| Adcd d2cd | {f}edef d2de | fgfe dc B(c/d/) | edcB A3G |
| F>GFE DEDF | AGFA Hd2 HA2 (de) | fdec d2cd | B2B>c BAFA |
| d2D>F A2AA | B2B=c BA z^c | d2DF A2AA | BecA Hd4 |]


